X:1
T:Title
%%score { 1 | 2 }
L:1/8
M:3/4
K:Bb
V:1 treble nm="Grand Piano"
V:2 bass 
V:1
 z2 z2[Q:1/4=112] [DF]2 | [Fd]2 [FB]2 [EG]2 | [DF]2 [B,D]2 [DF]2 | [Fd]2 [FB]2 [EG]2 | [DF]4 F2 | %5
 e2 d2 c2 | [Fd]2 [DFB]2 [B,FB]2 | [=EB]2 [EA]2 [EB]2 | [Ec]4 [EF]2 | [Dd]2 [DB]2 [EG]2 | %10
 [DF]2 D2 F2 | d2 c2 d2 | e4 G2 | B2 A2 G2 |[M:7/8] F2 B3 d2 |[M:3/4] c2 G2 A2 |[M:2/4] [EB]4 | %17
[M:1/4] F2 |[M:3/4] c3 c c2 | [Fc]2 [FB]2 c2 | d2 B2 e2 | d4 [Fd]2 | c3 c c2 | c2 A2 [EFc]2 | %24
 [DFB]2 [CFA]2 [B,=EG]2 | [A,F]4 [A,EF]2 | [Dd]2 [DB]2 [EG]2 | [DF]2 D2 F2 | d2 c2 d2 | e4 G2 | %30
 B2 A2 G2 |[M:7/8] F2 B3 d2 |[M:3/4] c2 G2 A2 |[M:2/4] [DB]4 |] %34
V:2
 z2 z2 [B,,B,]2 | [B,,B,]2 [D,B,]2 [E,B,]2 | [B,,B,]2 [B,,F,]2 [B,,B,]2 | %3
 [B,,B,]2 [D,B,]2 [E,B,]2 | [B,,B,]4 [F,A,]2 | [F,CF]2 [F,B,F]2 [F,A,F]2 | [B,,B,]2 B,,2 D,2 | %7
 [C,G,]2 [C,C]2 [C,B,]2 | [F,A,]4 [F,A,]2 | [B,,B,]2 [B,,F,]2 [B,,B,]2 | %10
 [B,,B,]2 [B,,F,B,]2[K:treble] [B,D]2 | [B,F]2 [A,CF]2 [_A,B,F]2 | [G,B,E]4[K:bass] [E,B,E]2 | %13
 [E,G,E]2 [E,A,E]2 [=E,B,_D]2 |[M:7/8] [F,B,D]2 [F,DF]3 [F,B,F]2 |[M:3/4] [F,A,E]2 [F,CE]2 [F,E]2 | %16
[M:2/4] [B,,F,]4 |[M:1/4] F,2 |[M:3/4] [F,A,F]3 [F,A,F] [F,A,F]2 | %19
 [E,A,]2 [D,B,]2[K:treble] [F,A,F]2 | [B,F]2 [B,D]2 [B,G]2 | [B,F]4[K:bass] [B,,B,]2 | %22
 [F,A,F]3 [F,A,F] [F,A,F]2 | [F,A,F]2 [F,CF]2 A,,2 | B,,2 C,2 C,2 | F,4 F,2 | %26
 [B,,B,]2 [B,,F,]2 [B,,B,]2 | [B,,B,]2 [B,,F,B,]2[K:treble] [B,D]2 | [B,F]2 [A,CF]2 [_A,B,F]2 | %29
 [G,B,E]4[K:bass] [E,B,E]2 | [E,G,E]2 [E,A,E]2 [=E,B,_D]2 |[M:7/8] [F,B,D]2 [F,DF]3 [F,B,F]2 | %32
[M:3/4] [F,A,E]2 [F,CE]2 [F,E]2 |[M:2/4] [B,,F,]4 |] %34

